X:1
T: The Departure from St. John's
C:Bruce Shawyer
R:Jig
Q:180
K:G
M:6/8
L:1/16
|:D2|G4d2 B2G2B2|c4A2 F2E2D2|G4d2 B2G2B2|c2A2G2 F2E2D2|
G4d2 B2G2B2|c2A2c2 F2E2D2|B4d2 c2A2F2|G6 G4:|
|:B2|A2B2A2 A2F2D2|E2C2E2 G2E2C2|A2B2A2 A2F2D2|A2B2^c2 d2c2B2|
A2B2A2 A2F2D2|E2C2E2 G2E2C2|F4A2 G2E2C2|D6 D4:|
